X: 100399
T: LADY SUTHERLAND'S REEL
R: reel
B: K\"ohler's Violin Repository, v.3, 1885 p.261 #1
F: http://www.archive.org/details/klersviolinrepos03rugg
Z: 2012 John Chambers <jc:trillian.mit.edu>
M: C|
L: 1/8
K: Bb
ud | TB2(FB) GBFB | EBDB Cccd | TB2(FB) Ggfe | dfce dBB :|
uf | bfdf egce | dfBd cFFf | bfdf egce | dfce dBB ||
 a | bfdf egce | dfBd cFFf | (gf)ga (bg)fe | dfce dB"_Fine."B "^D.C."|]

%%sep 2 1 500

